X:1
T:Git Away, Old Man
M:2/4
L:1/8
K:G
 z2 z d| d2 cA| B2 GG| d3/2 d/2 A3/2 c/2| B4| BB cc| d2 ee| d3/2 d/2 cF|\
 G2 z G/2G/2| GB cc| A2- A3/2 A/2| FA BB| G2 z d/2d/2| dd AB| c/2 c3/2 A d/2d/2|\
 dB c F/2F/2| G2 z2|

